static/assets/images/logos/monochrome/generali.svg

<svg height="88" width="69" xmlns="http://www.w3.org/2000/svg"><path d="M13.106 65.637h.571c1.8.033 1.875-2.2 1.875-2.226 0 0 .365.01.373 0l.003 5.253h-.38c-.21-1.773-.796-2.375-1.825-2.4h-.617v5.081h1.064c2.296 0 3.113-.492 3.53-3.724h.418v4.274h-8.35v-.55h1.545v-10.46H9.91v-.558l8.103-.003v4.065H17.7c-.518-3.653-1.61-3.503-4.585-3.503zm-3.31.21v.518H8.562v5.53c-.005-.004-1.456-1.165-1.46-1.15C6.666 71.412 5.853 72 4.7 72 1.028 72 .016 68.255 0 66.058c-.01-2.402 1.254-5.844 4.7-5.844 1.777 0 2.433.929 2.402.936.005.015 1.373-.995 1.365-.967.008-.009-.004 3.473-.004 4.204h-.317c-.418-1.776-1.462-3.753-3.446-3.753-2.816 0-2.71 4.377-2.71 5.424 0 1.145-.21 5.422 2.71 5.422.42 0 1.824-.399 2.09-1.354v-3.76H5.222v-.52zm53.42 1.774h.42v4.274H53.18v-.556h1.338c-.01 0-1.206-3.09-1.204-3.083h-3.838s-.722 1.87-.68 2.391c.065.72 1.098.69 1.255.69v.558h-2.82c-4.47.005-.473-5.302-3.886-5.583h-1.967v5.027h1.475v.556h-4.73v-.556H39.6V60.883h-1.475v-.562h5.766c2.03.076 3.246.946 3.246 2.695 0 2.496-2.623 3.039-2.623 3.039-.024.023 1.01.067 1.615.678.54.542.58 1.724.58 2.244v1.98c0 .1-.04.382.5.356.585-.113.861-1.026.854-.995.007-.03 3.565-10.32 3.551-10.312h.628l4.267 11.331h1.158V60.881h-1.46v-.563h4.802v.563h-1.46v10.456h.14c2.294 0 3.113-.484 3.528-3.716zm-13.48.1h3.444l-1.777-5zm-6.474-1.996c1.465 0 1.988-1.233 1.988-2.486 0-.518-.057-2.147-1.465-2.36h-2.398v4.846zM32.438 60.88v4.759h.57c1.801.032 1.875-2.201 1.875-2.227 0 0 .366.01.373 0l.003 5.253h-.38c-.21-1.773-.795-2.374-1.825-2.4h-.616v5.082H33.5c2.296 0 3.114-.493 3.53-3.725h.42v4.274h-8.353v-.55h1.547V60.878h-1.357c-.416 0-1.406.031-1.463.903v10.113h-.207c-.038.006-4.168-5.96-6.356-9.09l-.014 7.525c0 .833 1.256 1.15 1.777 1.15v.415h-4.072v-.415h.006c.521 0 1.77-.317 1.77-1.15v-8.548c-.039-.876-.87-.903-1.464-.903h-.5v-.555h3.01l5.527 8.13v-6.672c-.057-.872-1.046-.903-1.463-.903h-.31v-.555h11.816v4.065h-.314c-.519-3.653-1.617-3.51-4.593-3.51zm36.45.002h-1.48v10.45h1.48v.564h-4.715v-.563h1.486l-.005-10.451h-1.48v-.564h4.713zm-12.448-7.7H69v3.588H.012v-18l3.761-.978c-.64-1.023-.822-2.364-.317-3.139.464-.709 1.411-1.34 2.59-1.34h.025c.098-.156.213-.298.344-.423.454-.428 1.07-.643 1.782-.62 1.103.035 2.345.63 3.408 1.616l1.49-2.402-.356-.318-.105-.107a1.22 1.22 0 0 1-.392-.913c0-.48.48-1.016 1.492-1.112l1.404-.15c.691-.05 1.656-.454 1.656-1.202a.543.543 0 0 0-.523-.523c-.216.024-.877.463-1.127.629-.614.406-1.194.738-1.905.738-.976 0-1.77-.691-1.77-1.605 0-.277.071-.55.21-.787l.012-.022a1.83 1.83 0 0 1-.479-.898c-.062-.338-.038-.854.428-1.399a9.71 9.71 0 0 0 1.568-2.446l.022-.044.414-.777c.107-.164.262-.331.46-.496.314-.642.742-1.329 1.184-1.897.406-.52.966-.943 1.365-1.206a6.073 6.073 0 0 1 1.612-.734c1.738-.5 3.921-.116 5.84 1.027 1.38.82 2.457 2.215 3.045 3.856l.023-.08c.723-2.296 2.66-3.78 4.932-3.78h34.6l-.46 1.01c-1.118 2.455-3.066 3.7-5.79 3.7h-.365c-1.118 2.317-3.01 3.506-5.627 3.53-1.134 2.292-3.04 3.458-5.67 3.458H38.58c.056.253.085.536.085.855 0 .236-.03.465-.083.685.782.058 1.777.14 2.747.22 1.44.118 2.927.24 3.647.28l1.041.052c1.592.078 2.848.14 4.623.433 2.567.425 4.676 1.59 6.27 3.464.627.745 1.192 1.54 1.69 2.377.6.993 1.1 2.052 1.57 3.107h.021v.05c.134.301.265.603.395.9l.165.38c.757 2 1.387 3.62 2.012 4.861 1.378-.617 3.078-.223 3.793.938.15.244.275.464.396.677.292.519.547.967 1.07 1.545l.82.906-1.192.27c-.477.108-.92.16-1.337.16-3.056 0-4.546-2.817-6.122-6.824v5.575c.097 1.38-.198 1.916-2.27 2.775l-.02.007zm-4.352-2.474c-.248.637-.024 1.518.6 2.363l4.696-1.772c.3-.124 1.16-.483 1.353-.737.057-.076.057-.218.026-.636l-.002-.053v-9.107a29.293 29.293 0 0 0-1.108-2.248c-5.573-.67-7.049-1.284-9.926-5.96a65.68 65.68 0 0 0-1.78-.102c-.33-.016-.678-.034-1.048-.054-.74-.04-2.172-.157-3.687-.282-1.268-.103-2.578-.212-3.39-.264-.58.601-1.38.94-2.216.939-.72 0-1.25-.215-2.202-.628v-.001l-.617-.263 1.1-.987.628.267c.488.198.765.273 1.09.273.95 0 1.72-.747 1.72-1.664 0-.58-.12-.796-.163-.855h-4.737l.666-1.428h4.52c1.833 0 3.134-.651 4.03-2.028h-7.397l.666-1.429h8.29c1.87 0 3.184-.674 4.082-2.104H35.848l.666-1.428h12.76c1.755 0 3.023-.595 3.915-1.853H32.105c-1.632 0-3.03 1.087-3.566 2.77l-1.197 4.292a28.501 28.501 0 0 1-.905 3.102c.852.536 1.75 1.355 1.75 3.14 0 1.784-1.184 3.146-2.567 3.813a3.02 3.02 0 0 1 .485 1.637c0 1.527-1.146 2.798-2.642 3.037-.193.554-.414 1.045-.69 1.471v6.137a1.65 1.65 0 0 1-1.643 1.653h-.215c-.369 0-1.274.066-1.7.681-.362.522-.353 1.395.023 2.537.853.217 2.184.018 2.8-.832l.216-.295h.376c1 0 2.188-.048 2.545-.42.06-.06.237-.246.206-.999-.004-.092-.005-.776.746-1.368-.837-2.202.03-5.63.141-6.051l.146-.547.566.016c3.097.094 4.942-.502 7.076-1.19.534-.17 1.085-.348 1.675-.52.2-.065 2.643-.83 4.574-.831.173-.004 1.931.005 3.702 1.151l.107.07.01-.005.006.016c1.657 1.071 3.238 2.083 10.056 2.634 1.771.145 2.055 1.504 2.15 1.95l.01.074.345 3.405-3.814.852c-.376.072-.649.3-.789.661zm-1.016 2.474c-.547-1.038-.666-2.094-.317-2.991a2.45 2.45 0 0 1 1.84-1.545l2.547-.568-.214-2.106c-.116-.534-.27-.734-.859-.783-4.873-.393-7.269-1.054-8.848-1.789.547 1.113 1.073 2.198 1.265 2.765.34.981.083 1.98-.72 2.812l-3.98 4.205zm-16.75 0h5.495l4.914-5.192c.643-.665.462-1.19.402-1.362-.186-.55-.857-1.91-1.395-3.001a85.82 85.82 0 0 1-.735-1.515c-1.377-.802-2.663-.782-2.676-.784l-.017.001c-.394 0-.82.038-1.244.098l2.563 4.23c1.018 1.476.021 2.634-.307 3.016l-.018.018-1.917 2.071h-.378l-.068-.012-2.715-.505c-.48-.068-1.156.085-1.596.59-.46.528-.566 1.335-.308 2.347zm-.77-3.286a3.276 3.276 0 0 1 2.902-1.06l.021.004 2.342.434 1.43-1.543c.516-.603.48-.87.196-1.276l-.026-.04-2.85-4.702c-.805.188-1.396.376-1.408.38l-.017.006c-.575.168-1.12.342-1.647.512-2.02.652-3.94 1.268-6.904 1.268h-.068c-.29 1.365-.615 3.876.132 5.026l.452.696-.754.344c-.428.193-.523.39-.542.441.02.582-.032 1.397-.604 1.993-.47.49-1.154.71-2.093.803h8.744c-.327-1.658.176-2.692.694-3.286zm-15.512-.31c.571-.824 1.62-1.297 2.875-1.297h.215c.117 0 .213-.1.213-.223v-4.82c-.725.375-1.668.573-2.933.573h-.846l.142-.834.067-.39c.094-.532.164-.93.194-1.433-.53.241-1.1.393-1.63.474v11.546h1.48c-.459-1.513-.385-2.72.223-3.596zm-3.133 2.344V39.875l-6.732-1.75-6.734 1.75v12.054l6.734-1.753zm-12.6 1.251h11.735l-5.867-1.529zm2.347-17.747c-.162.248-.03 1.321.616 1.97l2.905-.756 8.163 2.122v1.417c.754-.149 1.44-.462 1.828-.855l1.14-1.16.084 1.623c.007.153.022.628.022.797 0 .72-.06 1.23-.147 1.76 1.867-.183 2.448-1.035 2.983-2.778l.154-.504h.55c.95 0 1.722-.74 1.722-1.65a1.64 1.64 0 0 0-.745-1.359l-1.456-.973 1.721-.322c1.26-.236 2.562-1.347 2.562-2.796 0-1.263-.589-1.661-1.547-2.204l-.535-.303.22-.574c.237-.62.686-1.929.99-3.2l-.014-.006.091-.325c.172-.78.276-1.52.227-2.05-.166-1.825-1.075-3.54-2.362-4.529.037 1.371-.697 2.806-1.894 3.686l.386 2.204h-.85c-.56 0-.95.309-.95.587 0 .166.064.494.132.844.104.53.233 1.19.266 1.881v.062c0 2.539-2.717 4.056-5.344 4.056h-.046c-.189 0-.584-.015-1.05-.112l-1.863 2.982c.062.122.204.347.303.5.052.082.092.144.1.16l.006.007.067.107c.094.146.25.394.318.537.025.054.038.092.03.104-.297.414-.59.831-.888 1.246.03-.042-.403-.692-.434-.747-.012-.021-.072-.113-.142-.225a6.43 6.43 0 0 1-.156-.254 7.6 7.6 0 0 0-.852-1.139c-.875-.94-1.952-1.54-2.813-1.567-.326-.01-.58.067-.753.229a.845.845 0 0 0-.215.363l-.192.588-.61-.106c-.804-.14-1.447.232-1.728.662zm8.814-5.248c-.016.075.031.173.09.217.305.24 1.546.339 1.626.342l.05.001c1.95.063 4.253-1.042 4.253-2.714-.029-.58-.14-1.153-.24-1.658-.089-.455-.16-.815-.16-1.118 0-.882.637-1.614 1.55-1.895l-.28-1.606.434-.249c1.085-.623 1.764-1.906 1.578-2.983l-.003-.022s-.01-.054-.042-.128l-3.557 2.196-.25-.032a8.11 8.11 0 0 0-.996-.066c-1.676 0-2.487.601-2.668.842l-.118.222c-.47 1.558 1.225.85 1.648 1.198.37.304-.33.946-.33.946-.182.179-.314.388-.61.388-.294 0-.532-.17-.532-.388a.599.599 0 0 0-.602-.592c-.336 0-.452.154-.653.435-.326.493-.649.893-.93 1.222-.029.033-.12.146-.107.21.025.132.25.31.394.406l.68.456-.786 1.053a.153.153 0 0 0-.009.052c0 .104.152.23.341.23.28 0 .648-.245 1.114-.554.715-.474 1.352-.866 1.918-.866 1.06 0 1.81 1.03 1.81 2.087-.173 1.562-1.699 2.18-3.198 2.232l-1.23-.039c-.084-.002-.163.076-.185.175zm2.948-11.152c-.026.032-.05.067-.077.1.36-.057.754-.092 1.182-.092a9.1 9.1 0 0 1 .92.049l2.523-1.558c-.819-.157-1.612-.144-2.302.055-.431.124-.842.31-1.22.552-.437.289-.802.607-1.026.894zm38.442-.368a6.394 6.394 0 0 1-1.426 1.853h7.022c1.756 0 3.025-.595 3.917-1.853zm-.477 5.385c1.868 0 3.184-.674 4.082-2.104H48.91c-.412.855-.93 1.56-1.55 2.104zm-5.59 3.457c1.835 0 3.135-.652 4.032-2.028H43.28c-.406.82-.91 1.498-1.51 2.028zm1.615 5.363c-.29-.049-.58-.092-.87-.131 2.092 3.18 3.395 3.726 7.137 4.217-.278-.396-.56-.763-.853-1.108-1.368-1.609-3.19-2.61-5.414-2.978zm14.932 15.416c-.31-.507-1.158-.68-1.857-.435.76 1.135 1.58 1.736 2.663 1.803a14.44 14.44 0 0 1-.437-.738c-.115-.2-.232-.408-.369-.63zm-51.923-6.56v1.475l-4.498-1.17v-1.475zm-10.48 1.474v-1.476l4.498-1.17v1.476zm0 2.966v-1.476l4.498-1.169V45zm10.48-1.476v1.476L8.917 45v-1.477zm0 2.968v1.476l-4.498-1.17V46.49zm-10.48 1.477V47.66l4.498-1.17v1.476z" fill="#000000"/></svg>

<?xml version="1.0" encoding="UTF-8" standalone="no"?>
<!DOCTYPE svg PUBLIC "-//W3C//DTD SVG 1.1//EN" "http://www.w3.org/Graphics/SVG/1.1/DTD/svg11.dtd">
<svg viewBox="0 0 70 57" version="1.1" xmlns="http://www.w3.org/2000/svg" xmlns:xlink="http://www.w3.org/1999/xlink" xml:space="preserve" xmlns:serif="http://www.serif.com/" style="fill-rule:evenodd;clip-rule:evenodd;stroke-linejoin:round;stroke-miterlimit:2;">
    <g transform="matrix(1,0,0,1,5.88149e-05,-16)">
        <path d="M13.106,65.637L13.677,65.637C15.477,65.67 15.552,63.437 15.552,63.411C15.552,63.411 15.917,63.421 15.925,63.411L15.928,68.664L15.548,68.664C15.338,66.891 14.752,66.289 13.723,66.264L13.106,66.264L13.106,71.345L14.17,71.345C16.466,71.345 17.283,70.853 17.7,67.621L18.118,67.621L18.118,71.895L9.768,71.895L9.768,71.345L11.313,71.345L11.313,60.885L9.91,60.885L9.91,60.327L18.013,60.324L18.013,64.389L17.7,64.389C17.182,60.736 16.09,60.886 13.115,60.886L13.106,65.637ZM9.796,65.847L9.796,66.365L8.562,66.365L8.562,71.895C8.557,71.891 7.106,70.73 7.102,70.745C6.666,71.412 5.853,72 4.7,72C1.028,72 0.016,68.255 0,66.058C-0.01,63.656 1.254,60.214 4.7,60.214C6.477,60.214 7.133,61.143 7.102,61.15C7.107,61.165 8.475,60.155 8.467,60.183C8.475,60.174 8.463,63.656 8.463,64.387L8.146,64.387C7.728,62.611 6.684,60.634 4.7,60.634C1.884,60.634 1.99,65.011 1.99,66.058C1.99,67.203 1.78,71.48 4.7,71.48C5.12,71.48 6.524,71.081 6.79,70.126L6.79,66.366L5.222,66.366L5.222,65.846L9.796,65.847ZM63.216,67.621L63.636,67.621L63.636,71.895L53.18,71.895L53.18,71.339L54.518,71.339C54.508,71.339 53.312,68.249 53.314,68.256L49.476,68.256C49.476,68.256 48.754,70.126 48.796,70.647C48.861,71.367 49.894,71.337 50.051,71.337L50.051,71.895L47.231,71.895C42.761,71.9 46.758,66.593 43.345,66.312L41.378,66.312L41.378,71.339L42.853,71.339L42.853,71.895L38.123,71.895L38.123,71.339L39.6,71.339L39.6,60.883L38.125,60.883L38.125,60.321L43.891,60.321C45.921,60.397 47.137,61.267 47.137,63.016C47.137,65.512 44.514,66.055 44.514,66.055C44.49,66.078 45.524,66.122 46.129,66.733C46.669,67.275 46.709,68.457 46.709,68.977L46.709,70.957C46.709,71.057 46.669,71.339 47.209,71.313C47.794,71.2 48.07,70.287 48.063,70.318C48.07,70.288 51.628,59.998 51.614,60.006L52.242,60.006L56.509,71.337L57.667,71.337L57.667,60.881L56.207,60.881L56.207,60.318L61.009,60.318L61.009,60.881L59.549,60.881L59.549,71.337L59.689,71.337C61.983,71.337 62.802,70.853 63.217,67.621L63.216,67.621ZM49.736,67.721L53.18,67.721L51.403,62.721L49.736,67.721ZM43.262,65.725C44.727,65.725 45.25,64.492 45.25,63.239C45.25,62.721 45.193,61.092 43.785,60.879L41.387,60.879L41.387,65.725L43.262,65.725ZM32.438,60.88L32.438,65.639L33.008,65.639C34.809,65.671 34.883,63.438 34.883,63.412C34.883,63.412 35.249,63.422 35.256,63.412L35.259,68.665L34.879,68.665C34.669,66.892 34.084,66.291 33.054,66.265L32.438,66.265L32.438,71.347L33.5,71.347C35.796,71.347 36.614,70.854 37.03,67.622L37.45,67.622L37.45,71.896L29.097,71.896L29.097,71.346L30.644,71.346L30.644,60.878L29.287,60.878C28.871,60.878 27.881,60.909 27.824,61.781L27.824,71.894L27.617,71.894C27.579,71.9 23.449,65.934 21.261,62.804L21.247,70.329C21.247,71.162 22.503,71.479 23.024,71.479L23.024,71.894L18.952,71.894L18.952,71.479L18.958,71.479C19.479,71.479 20.728,71.162 20.728,70.329L20.728,61.781C20.689,60.905 19.858,60.878 19.264,60.878L18.764,60.878L18.764,60.323L21.774,60.323L27.301,68.453L27.301,61.781C27.244,60.909 26.255,60.878 25.838,60.878L25.528,60.878L25.528,60.323L37.344,60.323L37.344,64.388L37.03,64.388C36.511,60.735 35.413,60.878 32.437,60.878L32.438,60.88ZM68.888,60.882L67.408,60.882L67.408,71.332L68.888,71.332L68.888,71.896L64.173,71.896L64.173,71.333L65.659,71.333L65.654,60.882L64.174,60.882L64.174,60.318L68.887,60.318L68.888,60.882ZM56.44,53.182L69,53.182L69,56.77L0.012,56.77L0.012,38.77L3.773,37.792C3.133,36.769 2.951,35.428 3.456,34.653C3.92,33.944 4.867,33.313 6.046,33.313L6.071,33.313C6.169,33.157 6.284,33.015 6.415,32.89C6.869,32.462 7.485,32.247 8.197,32.27C9.3,32.305 10.542,32.9 11.605,33.886L13.095,31.484L12.739,31.166L12.634,31.059C12.38,30.824 12.237,30.492 12.242,30.146C12.242,29.666 12.722,29.13 13.734,29.034L15.138,28.884C15.829,28.834 16.794,28.43 16.794,27.682C16.784,27.399 16.554,27.169 16.271,27.159C16.055,27.183 15.394,27.622 15.144,27.788C14.53,28.194 13.95,28.526 13.239,28.526C12.263,28.526 11.469,27.835 11.469,26.921C11.469,26.644 11.54,26.371 11.679,26.134L11.691,26.112C11.45,25.864 11.284,25.553 11.212,25.214C11.15,24.876 11.174,24.36 11.64,23.815C12.282,23.083 12.811,22.258 13.208,21.369L13.23,21.325L13.644,20.548C13.751,20.384 13.906,20.217 14.104,20.052C14.418,19.41 14.846,18.723 15.288,18.155C15.694,17.635 16.254,17.212 16.653,16.949C17.152,16.627 17.695,16.38 18.265,16.215C20.003,15.715 22.186,16.099 24.105,17.242C25.485,18.062 26.562,19.457 27.15,21.098L27.173,21.018C27.896,18.722 29.833,17.238 32.105,17.238L66.705,17.238L66.245,18.248C65.127,20.703 63.179,21.948 60.455,21.948L60.09,21.948C58.972,24.265 57.08,25.454 54.463,25.478C53.329,27.77 51.423,28.936 48.793,28.936L38.58,28.936C38.636,29.189 38.665,29.472 38.665,29.791C38.665,30.027 38.635,30.256 38.582,30.476C39.364,30.534 40.359,30.616 41.329,30.696C42.769,30.814 44.256,30.936 44.976,30.976L46.017,31.028C47.609,31.106 48.865,31.168 50.64,31.461C53.207,31.886 55.316,33.051 56.91,34.925C57.537,35.67 58.102,36.465 58.6,37.302C59.2,38.295 59.7,39.354 60.17,40.409L60.191,40.409L60.191,40.459C60.325,40.76 60.456,41.062 60.586,41.359L60.751,41.739C61.508,43.739 62.138,45.359 62.763,46.6C64.141,45.983 65.841,46.377 66.556,47.538C66.706,47.782 66.831,48.002 66.952,48.215C67.244,48.734 67.499,49.182 68.022,49.76L68.842,50.666L67.65,50.936C67.173,51.044 66.73,51.096 66.313,51.096C63.257,51.096 61.767,48.279 60.191,44.272L60.191,49.847C60.288,51.227 59.993,51.763 57.921,52.622L57.901,52.629L56.44,53.182ZM52.088,50.708C51.84,51.345 52.064,52.226 52.688,53.071L57.384,51.299C57.684,51.175 58.544,50.816 58.737,50.562C58.794,50.486 58.794,50.344 58.763,49.926L58.761,49.873L58.761,40.766C58.424,40.001 58.054,39.251 57.653,38.518C52.08,37.848 50.604,37.234 47.727,32.558C47.134,32.516 46.541,32.482 45.947,32.456C45.617,32.44 45.269,32.422 44.899,32.402C44.159,32.362 42.727,32.245 41.212,32.12C39.944,32.017 38.634,31.908 37.822,31.856C37.242,32.457 36.442,32.796 35.606,32.795C34.886,32.795 34.356,32.58 33.404,32.167L33.404,32.166L32.787,31.903L33.887,30.916L34.515,31.183C35.003,31.381 35.28,31.456 35.605,31.456C36.555,31.456 37.325,30.709 37.325,29.792C37.325,29.212 37.205,28.996 37.162,28.937L32.425,28.937L33.091,27.509L37.611,27.509C39.444,27.509 40.745,26.858 41.641,25.481L34.244,25.481L34.91,24.052L43.2,24.052C45.07,24.052 46.384,23.378 47.282,21.948L35.848,21.948L36.514,20.52L49.274,20.52C51.029,20.52 52.297,19.925 53.189,18.667L32.105,18.667C30.473,18.667 29.075,19.754 28.539,21.437L27.342,25.729C27.099,26.779 26.797,27.815 26.437,28.831C27.289,29.367 28.187,30.186 28.187,31.971C28.187,33.755 27.003,35.117 25.62,35.784C25.936,36.272 26.104,36.84 26.105,37.421C26.105,38.948 24.959,40.219 23.463,40.458C23.27,41.012 23.049,41.503 22.773,41.929L22.773,48.066C22.775,48.97 22.034,49.715 21.13,49.719L20.915,49.719C20.546,49.719 19.641,49.785 19.215,50.4C18.853,50.922 18.862,51.795 19.238,52.937C20.091,53.154 21.422,52.955 22.038,52.105L22.254,51.81L22.63,51.81C23.63,51.81 24.818,51.762 25.175,51.39C25.235,51.33 25.412,51.144 25.381,50.391C25.377,50.299 25.376,49.615 26.127,49.023C25.29,46.821 26.157,43.393 26.268,42.972L26.414,42.425L26.98,42.441C30.077,42.535 31.922,41.939 34.056,41.251C34.59,41.081 35.141,40.903 35.731,40.731C35.931,40.666 38.374,39.901 40.305,39.9C40.478,39.896 42.236,39.905 44.007,41.051L44.114,41.121L44.124,41.116L44.13,41.132C45.787,42.203 47.368,43.215 54.186,43.766C55.957,43.911 56.241,45.27 56.336,45.716L56.346,45.79L56.691,49.195L52.877,50.047C52.501,50.119 52.228,50.347 52.088,50.708ZM51.072,53.182C50.525,52.144 50.406,51.088 50.755,50.191C51.056,49.391 51.755,48.804 52.595,48.646L55.142,48.078L54.928,45.972C54.812,45.438 54.658,45.238 54.069,45.189C49.196,44.796 46.8,44.135 45.221,43.4C45.768,44.513 46.294,45.598 46.486,46.165C46.826,47.146 46.569,48.145 45.766,48.977L41.786,53.182L51.072,53.182ZM34.322,53.182L39.817,53.182L44.731,47.99C45.374,47.325 45.193,46.8 45.133,46.628C44.947,46.078 44.276,44.718 43.738,43.627C43.488,43.124 43.243,42.619 43.003,42.112C41.626,41.31 40.34,41.33 40.327,41.328L40.31,41.329C39.916,41.329 39.49,41.367 39.066,41.427L41.629,45.657C42.647,47.133 41.65,48.291 41.322,48.673L41.304,48.691L39.387,50.762L39.009,50.762L38.941,50.75L36.226,50.245C35.746,50.177 35.07,50.33 34.63,50.835C34.17,51.363 34.064,52.17 34.322,53.182ZM33.552,49.896C34.281,49.081 35.371,48.683 36.454,48.836L36.475,48.84L38.817,49.274L40.247,47.731C40.763,47.128 40.727,46.861 40.443,46.455L40.417,46.415L37.567,41.713C36.762,41.901 36.171,42.089 36.159,42.093L36.142,42.099C35.567,42.267 35.022,42.441 34.495,42.611C32.475,43.263 30.555,43.879 27.591,43.879L27.523,43.879C27.233,45.244 26.908,47.755 27.655,48.905L28.107,49.601L27.353,49.945C26.925,50.138 26.83,50.335 26.811,50.386C26.831,50.968 26.779,51.783 26.207,52.379C25.737,52.869 25.053,53.089 24.114,53.182L32.858,53.182C32.531,51.524 33.034,50.49 33.552,49.896ZM18.04,49.586C18.611,48.762 19.66,48.289 20.915,48.289L21.13,48.289C21.247,48.289 21.343,48.189 21.343,48.066L21.343,43.246C20.618,43.621 19.675,43.819 18.41,43.819L17.564,43.819L17.706,42.985L17.773,42.595C17.867,42.063 17.937,41.665 17.967,41.162C17.437,41.403 16.867,41.555 16.337,41.636L16.337,53.182L17.817,53.182C17.358,51.669 17.432,50.462 18.04,49.586ZM14.907,51.93L14.907,39.875L8.175,38.125L1.441,39.875L1.441,51.929L8.175,50.176L14.907,51.93ZM2.307,53.181L14.042,53.181L8.175,51.652L2.307,53.181ZM4.654,35.434C4.492,35.682 4.624,36.755 5.27,37.404L8.175,36.648L16.338,38.77L16.338,40.187C17.092,40.038 17.778,39.725 18.166,39.332L19.306,38.172L19.39,39.795C19.397,39.948 19.412,40.423 19.412,40.592C19.412,41.312 19.352,41.822 19.265,42.352C21.132,42.169 21.713,41.317 22.248,39.574L22.402,39.07L22.952,39.07C23.902,39.07 24.674,38.33 24.674,37.42C24.669,36.871 24.389,36.36 23.929,36.061L22.473,35.088L24.194,34.766C25.454,34.53 26.756,33.419 26.756,31.97C26.756,30.707 26.167,30.309 25.209,29.766L24.674,29.463L24.894,28.889C25.131,28.269 25.58,26.96 25.884,25.689L25.87,25.683L25.961,25.358C26.133,24.578 26.237,23.838 26.188,23.308C26.022,21.483 25.113,19.768 23.826,18.779C23.863,20.15 23.129,21.585 21.932,22.465L22.318,24.669L21.468,24.669C20.908,24.669 20.518,24.978 20.518,25.256C20.518,25.422 20.582,25.75 20.65,26.1C20.754,26.63 20.883,27.29 20.916,27.981L20.916,28.043C20.916,30.582 18.199,32.099 15.572,32.099L15.526,32.099C15.337,32.099 14.942,32.084 14.476,31.987L12.613,34.969C12.675,35.091 12.817,35.316 12.916,35.469C12.968,35.551 13.008,35.613 13.016,35.629L13.022,35.636L13.089,35.743C13.183,35.889 13.339,36.137 13.407,36.28C13.432,36.334 13.445,36.372 13.437,36.384C13.14,36.798 12.847,37.215 12.549,37.63C12.579,37.588 12.146,36.938 12.115,36.883C12.103,36.862 12.043,36.77 11.973,36.658C11.919,36.575 11.867,36.49 11.817,36.404C11.569,35.999 11.284,35.617 10.965,35.265C10.09,34.325 9.013,33.725 8.152,33.698C7.826,33.688 7.572,33.765 7.399,33.927C7.298,34.028 7.224,34.153 7.184,34.29L6.992,34.878L6.382,34.772C5.578,34.632 4.935,35.004 4.654,35.434ZM13.468,30.186C13.452,30.261 13.499,30.359 13.558,30.403C13.863,30.643 15.104,30.742 15.184,30.745L15.234,30.746C17.184,30.809 19.487,29.704 19.487,28.032C19.458,27.452 19.347,26.879 19.247,26.374C19.158,25.919 19.087,25.559 19.087,25.256C19.087,24.374 19.724,23.642 20.637,23.361L20.357,21.755L20.791,21.506C21.876,20.883 22.555,19.6 22.369,18.523L22.366,18.501C22.366,18.501 22.356,18.447 22.324,18.373L18.767,20.569L18.517,20.537C18.187,20.495 17.854,20.473 17.521,20.471C15.845,20.471 15.034,21.072 14.853,21.313L14.735,21.535C14.265,23.093 15.96,22.385 16.383,22.733C16.753,23.037 16.053,23.679 16.053,23.679C15.871,23.858 15.739,24.067 15.443,24.067C15.149,24.067 14.911,23.897 14.911,23.679C14.907,23.352 14.636,23.085 14.309,23.087C13.973,23.087 13.857,23.241 13.656,23.522C13.33,24.015 13.007,24.415 12.726,24.744C12.697,24.777 12.606,24.89 12.619,24.954C12.644,25.086 12.869,25.264 13.013,25.36L13.693,25.816L12.907,26.869C12.901,26.886 12.898,26.903 12.898,26.921C12.898,27.025 13.05,27.151 13.239,27.151C13.519,27.151 13.887,26.906 14.353,26.597C15.068,26.123 15.705,25.731 16.271,25.731C17.331,25.731 18.081,26.761 18.081,27.818C17.908,29.38 16.382,29.998 14.883,30.05L13.653,30.011C13.569,30.009 13.49,30.087 13.468,30.186ZM16.416,19.034C16.39,19.066 16.366,19.101 16.339,19.134C16.699,19.077 17.093,19.042 17.521,19.042C17.828,19.043 18.135,19.059 18.441,19.091L20.964,17.533C20.145,17.376 19.352,17.389 18.662,17.588C18.231,17.712 17.82,17.898 17.442,18.14C17.005,18.429 16.64,18.747 16.416,19.034ZM54.858,18.666C54.501,19.366 54.017,19.994 53.432,20.519L60.454,20.519C62.21,20.519 63.479,19.924 64.371,18.666L54.858,18.666ZM54.381,24.051C56.249,24.051 57.565,23.377 58.463,21.947L48.91,21.947C48.498,22.802 47.98,23.507 47.36,24.051L54.381,24.051ZM48.791,27.508C50.626,27.508 51.926,26.856 52.823,25.48L43.28,25.48C42.874,26.3 42.37,26.978 41.77,27.508L48.791,27.508ZM50.406,32.871C50.116,32.822 49.826,32.779 49.536,32.74C51.628,35.92 52.931,36.466 56.673,36.957C56.395,36.561 56.113,36.194 55.82,35.849C54.452,34.24 52.63,33.239 50.406,32.871ZM65.338,48.287C65.028,47.78 64.18,47.607 63.481,47.852C64.241,48.987 65.061,49.588 66.144,49.655C65.991,49.413 65.845,49.167 65.707,48.917C65.592,48.717 65.475,48.509 65.338,48.287ZM13.415,41.727L13.415,43.202L8.917,42.032L8.917,40.557L13.415,41.727ZM2.935,43.201L2.935,41.725L7.433,40.555L7.433,42.031L2.935,43.201ZM2.935,46.167L2.935,44.691L7.433,43.522L7.433,45L2.935,46.167ZM13.415,44.691L13.415,46.167L8.917,45L8.917,43.523L13.415,44.691ZM13.415,47.659L13.415,49.135L8.917,47.965L8.917,46.49L13.415,47.659ZM2.935,49.136L2.935,47.66L7.433,46.49L7.433,47.966L2.935,49.136Z" style="fill-rule:nonzero;"/>
    </g>
</svg>
